;FLAVOR:Marlin
;TIME:3690
;Filament used: 1.96866m
;Layer height: 0.2
;MINX:134.346
;MINY:135.213
;MINZ:0.2
;MAXX:165.654
;MAXY:165.521
;MAXZ:15
;Generated with Creality Slicer 4.8.2-254
M140 S60
M105
M190 S60
M104 S200
M105
M109 S200
M82 ;absolute extrusion mode

G28 ;Home

G92 E0 ;Reset Extruder
G1 Z2.0 F3000 ;Move Z Axis up
G1 X10.1 Y20 Z0.28 F5000.0 ;Move to start position
G1 X10.1 Y200.0 Z0.28 F1500.0 E15 ;Draw the first line
G1 X10.4 Y200.0 Z0.28 F5000.0 ;Move to side a little
G1 X10.4 Y20 Z0.28 F1500.0 E30 ;Draw the second line
G92 E0 ;Reset Extruder
G1 Z2.0 F3000 ;Move Z Axis up

G92 E0
G92 E0
G1 F2400 E-0.8
;LAYER_COUNT:75
;LAYER:0
M107
G0 F6000 X137.211 Y141.511 Z0.2
;TYPE:SKIRT
G1 F2400 E0
G1 F1200 X162.789 Y141.511 E0.85073
G1 X162.789 Y142.097 E0.87022
G1 X137.211 Y142.097 E1.72095
G1 X137.211 Y141.511 E1.74044
G0 F6000 X136.811 Y141.111
G1 F1200 X163.189 Y141.111 E2.61777
G1 X163.189 Y142.497 E2.66387
G1 X136.811 Y142.497 E3.54121
G1 X136.811 Y141.111 E3.58731
G0 F6000 X136.411 Y140.711
G1 F1200 X163.589 Y140.711 E4.49125
G1 X163.589 Y142.897 E4.56396
G1 X136.411 Y142.897 E5.4679
G1 X136.411 Y140.711 E5.54061
G0 F6000 X136.011 Y140.311
G1 F1200 X163.989 Y140.311 E6.47116
G1 X163.989 Y143.297 E6.57047
G1 X136.011 Y143.297 E7.50103
G1 X136.011 Y140.311 E7.60034
G0 F6000 X135.611 Y139.911
G1 F1200 X164.389 Y139.911 E8.5575
G1 X164.389 Y143.697 E8.68342
G1 X135.611 Y143.697 E9.64058
G1 X135.611 Y139.911 E9.76651
G0 F6000 X135.211 Y139.511
G1 F1200 X164.789 Y139.511 E10.75027
G1 X164.789 Y144.097 E10.90281
G1 X135.211 Y144.097 E11.88657
G1 X135.211 Y139.511 E12.0391
G1 F2400 E11.2391
G0 F6000 X134.358 Y143.644
G0 X134.358 Y156.356
G0 X135.211 Y156.368
G0 X135.211 Y155.903
G1 F2400 E12.0391
G1 F1200 X164.789 Y155.903 E13.02287
G1 X164.789 Y160.489 E13.1754
G1 X135.211 Y160.49 E14.15917
G1 X135.211 Y155.903 E14.31174
G0 F6000 X135.611 Y156.303
G1 F1200 X164.389 Y156.303 E15.2689
G1 X164.389 Y160.089 E15.39482
G1 X135.611 Y160.09 E16.35198
G1 X135.611 Y156.303 E16.47794
G0 F6000 X136.011 Y156.703
G1 F1200 X163.989 Y156.703 E17.40849
G1 X163.989 Y159.689 E17.5078
G1 X136.011 Y159.69 E18.43835
G1 X136.011 Y156.703 E18.5377
G0 F6000 X136.411 Y157.103
G1 F1200 X163.589 Y157.103 E19.44165
G1 X163.589 Y159.289 E19.51435
G1 X136.411 Y159.29 E20.4183
G1 X136.411 Y157.103 E20.49104
G0 F6000 X136.811 Y157.503
G1 F1200 X163.189 Y157.503 E21.36837
G1 X163.189 Y158.889 E21.41447
G1 X136.811 Y158.89 E22.29181
G1 X136.811 Y157.503 E22.33794
G0 F6000 X137.211 Y157.903
G1 F1200 X162.789 Y157.903 E23.18867
G1 X162.789 Y158.489 E23.20816
G1 X137.211 Y158.49 E24.05888
G1 X137.211 Y157.903 E24.07841
G1 F2400 E23.27841
G0 F6000 X135.211 Y156.368
G0 X135.211 Y155.503
;TYPE:SUPPORT-INTERFACE
G1 F2400 E24.07841
G1 F1200 X135.211 Y152.479 E24.17899
G1 X164.789 Y152.479 E25.16276
G1 X164.789 Y155.503 E25.26333
G1 X135.211 Y155.503 E26.2471
G1 F2400 E25.4471
G0 F6000 X134.346 Y155.503
G0 X134.35 Y149.084
G0 X134.854 Y148.58
G0 X135.273 Y148.577
G0 X135.211 Y147.521
G1 F2400 E26.2471
G1 F1200 X135.211 Y144.497 E26.34768
G1 X164.789 Y144.497 E27.33145
G1 X164.789 Y147.521 E27.43203
G1 X135.211 Y147.521 E28.4158
G0 F6000 X135.41 Y146.3
G1 F1200 X137.014 Y144.696 E28.49124
G0 F6000 X137.909 Y144.697
G1 F1200 X140.531 Y147.32 E28.6146
G0 F6000 X141.178 Y147.32
G1 F1200 X143.802 Y144.696 E28.73802
G0 F6000 X144.697 Y144.697
G1 F1200 X147.32 Y147.32 E28.8614
G0 F6000 X147.967 Y147.32
G1 F1200 X150.591 Y144.696 E28.98483
G0 F6000 X151.485 Y144.697
G1 F1200 X154.108 Y147.32 E29.1082
G0 F6000 X154.755 Y147.32
G1 F1200 X157.379 Y144.696 E29.23163
G0 F6000 X158.273 Y144.697
G1 F1200 X160.896 Y147.32 E29.35501
G0 F6000 X161.543 Y147.32
G1 F1200 X164.167 Y144.696 E29.47843
G0 F6000 X161.667 Y144.697
G1 F1200 X164.29 Y147.32 E29.60181
G1 F2400 E28.80181
G0 F6000 X164.29 Y148.386
G0 X164.835 Y148.614
G0 X165.647 Y148.278
G0 X165.642 Y143.644
G0 X160.773 Y143.632
G0 X160.773 Y144.696
G1 F2400 E29.60181
G1 F1200 X158.149 Y147.32 E29.72523
G0 F6000 X157.502 Y147.32
G1 F1200 X154.879 Y144.697 E29.84861
G0 F6000 X153.985 Y144.696
G1 F1200 X151.361 Y147.32 E29.97204
G0 F6000 X150.714 Y147.32
G1 F1200 X148.091 Y144.697 E30.09541
G0 F6000 X147.197 Y144.696
G1 F1200 X144.572 Y147.32 E30.21886
G0 F6000 X143.925 Y147.32
G1 F1200 X141.303 Y144.697 E30.34222
G0 F6000 X140.408 Y144.696
G1 F1200 X137.784 Y147.32 E30.46564
G0 F6000 X137.137 Y147.32
G1 F1200 X135.41 Y145.593 E30.54688
G1 F2400 E29.74688
G0 F6000 X134.346 Y145.593
G0 X134.35 Y150.916
G0 X134.854 Y151.42
G0 X135.313 Y151.42
G0 X135.708 Y151.614
G0 X135.708 Y152.679
G1 F2400 E30.54688
G1 F1200 X138.331 Y155.301 E30.67023
G0 F6000 X139.985 Y155.302
G1 F1200 X142.609 Y152.678 E30.79365
G0 F6000 X142.496 Y152.679
G1 F1200 X145.119 Y155.301 E30.91701
G0 F6000 X146.773 Y155.302
G1 F1200 X149.397 Y152.678 E31.04043
G0 F6000 X149.285 Y152.679
G1 F1200 X151.907 Y155.301 E31.16376
G0 F6000 X153.561 Y155.302
G1 F1200 X156.185 Y152.678 E31.28719
G0 F6000 X156.073 Y152.679
G1 F1200 X158.695 Y155.301 E31.41052
G0 F6000 X160.349 Y155.302
G1 F1200 X162.973 Y152.678 E31.53395
G0 F6000 X162.861 Y152.679
G1 F1200 X164.588 Y154.405 E31.61515
G0 F6000 X164.588 Y154.458
G1 F1200 X163.744 Y155.302 E31.65485
G0 F6000 X162.09 Y155.301
G1 F1200 X159.467 Y152.679 E31.77821
G0 F6000 X159.579 Y152.678
G1 F1200 X156.955 Y155.302 E31.90163
G0 F6000 X155.301 Y155.301
G1 F1200 X152.679 Y152.679 E32.02496
G0 F6000 X152.791 Y152.678
G1 F1200 X150.167 Y155.302 E32.14839
G0 F6000 X148.513 Y155.301
G1 F1200 X145.89 Y152.679 E32.27174
G0 F6000 X146.003 Y152.678
G1 F1200 X143.379 Y155.302 E32.39517
G0 F6000 X141.725 Y155.301
G1 F1200 X139.102 Y152.679 E32.51852
G0 F6000 X139.215 Y152.678
G1 F1200 X136.591 Y155.302 E32.64195
G0 F6000 X135.41 Y153.088
G1 F1200 X135.821 Y152.678 E32.66126
G1 F2400 E31.86126
;MESH:tactileRounded.stl
G0 F6000 X135.821 Y150.339
G0 X164.389 Y150.159
;TYPE:WALL-INNER
G1 F2400 E32.66126
G1 F1200 X135.611 Y150.159 E33.61842
G1 X135.611 Y149.841 E33.62899
G1 X164.389 Y149.841 E34.39184
G1 X164.389 Y150.159 E34.40242
G0 F6000 X164.789 Y150.559
;TYPE:WALL-OUTER
G1 F1200 X135.211 Y150.559 E35.38619
G1 X135.211 Y149.441 E35.42337
G1 X164.789 Y149.441 E36.40714
G1 X164.789 Y150.559 E36.44433
G0 F6000 X164.189 Y150.077
G1 F2400 E35.64433
;MESH:NONMESH
G0 F300 X164.189 Y150.077 Z0.4
G0 F6000 X135.425 Y149.655
G0 X135.425 Y148.576
G0 X135.165 Y148.614
G0 X134.353 Y148.278
G0 X134.358 Y143.644
G0 X135.211 Y139.511
;TIME_ELAPSED:68.269418
;LAYER:1
M106 S85
;TYPE:SUPPORT
G1 F2400 E36.44433
G1 F1350 X164.789 Y139.511 E37.42809
G1 X164.789 Y143.614 E37.56456
G1 X135.211 Y143.614 E38.54833
G1 X135.211 Y139.511 E38.68479
G0 F6600 X136 Y139.711
G1 F1350 X136 Y143.414 E38.80796
G0 F6600 X138 Y143.414
G1 F1350 X138 Y139.711 E38.93112
G0 F6600 X140 Y139.711
G1 F1350 X140 Y143.414 E39.05428
G0 F6600 X142 Y143.414
G1 F1350 X142 Y139.711 E39.17744
G0 F6600 X144 Y139.711
G1 F1350 X144 Y143.414 E39.30061
G0 F6600 X146 Y143.414
G1 F1350 X146 Y139.711 E39.42377
G0 F6600 X148 Y139.711
G1 F1350 X148 Y143.414 E39.54693
G0 F6600 X150 Y143.414
G1 F1350 X150 Y139.711 E39.67009
G0 F6600 X152 Y139.711
G1 F1350 X152 Y143.414 E39.79326
G0 F6600 X154 Y143.414
G1 F1350 X154 Y139.711 E39.91642
G0 F6600 X156 Y139.711
G1 F1350 X156 Y143.414 E40.03958
G0 F6600 X158 Y143.414
G1 F1350 X158 Y139.711 E40.16274
G0 F6600 X160 Y139.711
G1 F1350 X160 Y143.414 E40.2859
G0 F6600 X162 Y143.414
G1 F1350 X162 Y139.711 E40.40907
G0 F6600 X164 Y139.711
G1 F1350 X164 Y143.414 E40.53223
G1 F2400 E39.73223
G0 F6600 X165.654 Y143.414
G0 X165.654 Y156.386
G0 X164.789 Y156.386
G1 F2400 E40.53223
G1 F1350 X164.789 Y160.489 E40.6687
G1 X135.211 Y160.49 E41.65246
G1 X135.211 Y156.386 E41.78896
G1 X164.789 Y156.386 E42.77273
G0 F6600 X164 Y156.586
G1 F1350 X164 Y160.29 E42.89593
G0 F6600 X162 Y160.29
G1 F1350 X162 Y156.586 E43.01912
G0 F6600 X160 Y156.586
G1 F1350 X160 Y160.29 E43.14232
G0 F6600 X158 Y160.29
G1 F1350 X158 Y156.586 E43.26551
G0 F6600 X156 Y156.586
G1 F1350 X156 Y160.29 E43.38871
G0 F6600 X154 Y160.29
G1 F1350 X154 Y156.586 E43.5119
G0 F6600 X152 Y156.586
G1 F1350 X152 Y160.29 E43.6351
G0 F6600 X150 Y160.29
G1 F1350 X150 Y156.586 E43.7583
G0 F6600 X148 Y156.586
G1 F1350 X148 Y160.29 E43.88149
G0 F6600 X146 Y160.29
G1 F1350 X146 Y156.586 E44.00469
G0 F6600 X144 Y156.586
G1 F1350 X144 Y160.29 E44.12788
G0 F6600 X142 Y160.29
G1 F1350 X142 Y156.586 E44.25108
G0 F6600 X140 Y156.586
G1 F1350 X140 Y160.29 E44.37427
G0 F6600 X138 Y160.29
G1 F1350 X138 Y156.586 E44.49747
G0 F6600 X136 Y156.586
G1 F1350 X136 Y160.29 E44.62066
G1 F2400 E43.82066
G0 F6600 X136.001 Y161.354
G0 X134.854 Y161.351
G0 X134.35 Y160.847
G0 X134.346 Y156.185
G0 X135.82 Y156.185
;TYPE:SUPPORT-INTERFACE
G1 F2400 E44.62066
G1 F1350 X135.011 Y155.376 E44.65872
G0 F6600 X135.707 Y156.185
G1 F1350 X138.096 Y153.797 E44.77106
G0 F6600 X136.827 Y153.797
G1 F1350 X139.214 Y156.185 E44.88337
G0 F6600 X139.102 Y156.185
G1 F1350 X141.49 Y153.797 E44.99569
G0 F6600 X140.221 Y153.797
G1 F1350 X142.608 Y156.185 E45.10799
G0 F6600 X142.496 Y156.185
G1 F1350 X144.884 Y153.797 E45.22031
G0 F6600 X143.615 Y153.797
G1 F1350 X146.002 Y156.185 E45.33262
G0 F6600 X145.89 Y156.185
G1 F1350 X148.278 Y153.797 E45.44494
G0 F6600 X147.009 Y153.797
G1 F1350 X149.396 Y156.185 E45.55724
G0 F6600 X149.284 Y156.185
G1 F1350 X151.672 Y153.797 E45.66956
G0 F6600 X150.403 Y153.797
G1 F1350 X152.791 Y156.185 E45.78189
G0 F6600 X152.677 Y156.186
G1 F1350 X155.067 Y153.797 E45.89428
G0 F6600 X153.797 Y153.797
G1 F1350 X156.185 Y156.185 E46.00661
G0 F6600 X156.071 Y156.186
G1 F1350 X158.461 Y153.797 E46.119
G0 F6600 X157.191 Y153.797
G1 F1350 X159.579 Y156.185 E46.23133
G0 F6600 X159.466 Y156.186
G1 F1350 X161.855 Y153.797 E46.3437
G0 F6600 X160.586 Y153.797
G1 F1350 X162.973 Y156.185 E46.456
G0 F6600 X162.86 Y156.186
G1 F1350 X164.987 Y154.058 E46.55607
G0 F6600 X164.988 Y154.806
G1 F1350 X163.98 Y153.797 E46.60351
G1 F2400 E45.80351
G0 F6600 X163.98 Y153.133
G0 X164.809 Y152.94
G0 X165.146 Y152.94
G0 X165.65 Y152.436
G0 X165.65 Y147.564
G0 X165.146 Y147.06
G0 X164.593 Y147.059
G0 X163.171 Y146.867
G0 X163.171 Y146.201
G1 F2400 E46.60351
G1 F1350 X160.784 Y143.814 E46.71578
G0 F6600 X161.656 Y143.813
G1 F1350 X159.268 Y146.202 E46.82813
G0 F6600 X159.777 Y146.201
G1 F1350 X157.39 Y143.814 E46.94041
G0 F6600 X158.262 Y143.813
G1 F1350 X155.873 Y146.202 E47.05278
G0 F6600 X156.383 Y146.201
G1 F1350 X153.996 Y143.814 E47.16506
G0 F6600 X154.868 Y143.813
G1 F1350 X152.479 Y146.202 E47.27743
G0 F6600 X152.989 Y146.201
G1 F1350 X150.602 Y143.814 E47.38971
G0 F6600 X151.474 Y143.813
G1 F1350 X149.085 Y146.202 E47.50208
G0 F6600 X149.595 Y146.201
G1 F1350 X147.208 Y143.814 E47.61435
G0 F6600 X148.08 Y143.813
G1 F1350 X145.691 Y146.202 E47.72672
G0 F6600 X146.201 Y146.201
G1 F1350 X143.814 Y143.814 E47.839
G0 F6600 X144.686 Y143.813
G1 F1350 X142.297 Y146.202 E47.95137
G0 F6600 X142.807 Y146.201
G1 F1350 X140.42 Y143.814 E48.06365
G0 F6600 X141.291 Y143.813
G1 F1350 X138.903 Y146.202 E48.176
G0 F6600 X139.413 Y146.201
G1 F1350 X137.025 Y143.814 E48.2883
G0 F6600 X137.897 Y143.813
G1 F1350 X135.509 Y146.202 E48.40065
G0 F6600 X136.019 Y146.201
G1 F1350 X135.011 Y145.193 E48.44806
G1 F2400 E47.64806
G0 F6600 X134.346 Y145.193
G0 X134.353 Y146.759
G0 X135.083 Y147.061
G0 X162.662 Y146.867
G0 X162.662 Y146.202
G1 F2400 E48.44806
G1 F1350 X164.987 Y143.876 E48.55744
G0 F6600 X164.987 Y144.623
G1 F1350 X164.178 Y143.814 E48.5955
G1 F2400 E47.7955
;MESH:tactileRounded.stl
G0 F6600 X165.654 Y143.814
G0 X165.647 Y146.759
G0 X164.917 Y147.061
G0 X164.178 Y147.056
G0 X164.178 Y148.141
G0 X164.389 Y151.679
;TYPE:WALL-INNER
G1 F2400 E48.5955
G1 F1350 X135.611 Y151.679 E49.55266
G1 X135.611 Y148.321 E49.66434
G1 X164.389 Y148.321 E50.6215
G1 X164.389 Y151.679 E50.73319
G0 F6600 X164.789 Y152.079
;TYPE:WALL-OUTER
G1 F1350 X135.211 Y152.079 E51.71696
G1 X135.211 Y147.921 E51.85526
G1 X164.789 Y147.921 E52.83902
G1 X164.789 Y152.079 E52.97732
G0 F6600 X164.519 Y151.809
G0 X164.279 Y151.289
G0 X163.999 Y151.289
;TYPE:SKIN
G1 F1350 X136.001 Y151.289 E53.90854
G1 X136.001 Y148.711 E53.99428
G1 X163.999 Y148.711 E54.9255
G1 X163.999 Y151.289 E55.01124
G0 F6600 X163.838 Y150.683
G1 F1350 X163.391 Y151.129 E55.03225
G0 F6600 X162.826 Y151.129
G1 F1350 X163.838 Y150.117 E55.07985
G0 F6600 X163.838 Y149.551
G1 F1350 X162.26 Y151.129 E55.15407
G0 F6600 X161.694 Y151.129
G1 F1350 X163.838 Y148.985 E55.25492
G0 F6600 X163.387 Y148.87
G1 F1350 X161.129 Y151.129 E55.36115
G0 F6600 X160.563 Y151.129
G1 F1350 X162.821 Y148.87 E55.46738
G0 F6600 X162.256 Y148.87
G1 F1350 X159.997 Y151.129 E55.57364
G0 F6600 X159.432 Y151.129
G1 F1350 X161.69 Y148.87 E55.67987
G0 F6600 X161.124 Y148.87
G1 F1350 X158.866 Y151.129 E55.78611
G0 F6600 X158.3 Y151.129
G1 F1350 X160.559 Y148.87 E55.89236
G0 F6600 X159.993 Y148.87
G1 F1350 X157.735 Y151.129 E55.9986
G0 F6600 X157.169 Y151.129
G1 F1350 X159.427 Y148.87 E56.10483
G0 F6600 X158.862 Y148.87
G1 F1350 X156.603 Y151.129 E56.21109
G0 F6600 X156.037 Y151.129
G1 F1350 X158.296 Y148.87 E56.31734
G0 F6600 X157.73 Y148.87
G1 F1350 X155.472 Y151.129 E56.42357
G0 F6600 X154.906 Y151.129
G1 F1350 X157.165 Y148.87 E56.52983
G0 F6600 X156.599 Y148.87
G1 F1350 X154.34 Y151.129 E56.63609
G0 F6600 X153.775 Y151.129
G1 F1350 X156.033 Y148.87 E56.74232
G0 F6600 X155.468 Y148.87
G1 F1350 X153.209 Y151.129 E56.84858
G0 F6600 X152.643 Y151.129
G1 F1350 X154.902 Y148.87 E56.95483
G0 F6600 X154.336 Y148.87
G1 F1350 X152.078 Y151.129 E57.06107
G0 F6600 X151.512 Y151.129
G1 F1350 X153.77 Y148.87 E57.1673
G0 F6600 X153.205 Y148.87
G1 F1350 X150.946 Y151.129 E57.27356
G0 F6600 X150.381 Y151.129
G1 F1350 X152.639 Y148.87 E57.37979
G0 F6600 X152.073 Y148.87
G1 F1350 X149.816 Y151.128 E57.48597
G0 F6600 X149.25 Y151.128
G1 F1350 X151.508 Y148.87 E57.59218
G0 F6600 X150.942 Y148.87
G1 F1350 X148.684 Y151.128 E57.69839
G0 F6600 X148.119 Y151.128
G1 F1350 X150.376 Y148.87 E57.80458
G0 F6600 X149.811 Y148.87
G1 F1350 X147.553 Y151.128 E57.91079
G0 F6600 X146.987 Y151.128
G1 F1350 X149.245 Y148.87 E58.017
G0 F6600 X148.679 Y148.87
G1 F1350 X146.422 Y151.128 E58.12318
G0 F6600 X145.856 Y151.128
G1 F1350 X148.114 Y148.87 E58.22939
G0 F6600 X147.548 Y148.87
G1 F1350 X145.29 Y151.128 E58.3356
G0 F6600 X144.724 Y151.128
G1 F1350 X146.982 Y148.87 E58.44181
G0 F6600 X146.417 Y148.87
G1 F1350 X144.159 Y151.128 E58.54802
G0 F6600 X143.593 Y151.128
G1 F1350 X145.851 Y148.87 E58.65423
G0 F6600 X145.285 Y148.87
G1 F1350 X143.027 Y151.128 E58.76044
G0 F6600 X142.462 Y151.128
G1 F1350 X144.72 Y148.87 E58.86665
G0 F6600 X144.154 Y148.87
G1 F1350 X141.896 Y151.128 E58.97286
G0 F6600 X141.33 Y151.128
G1 F1350 X143.588 Y148.87 E59.07907
G0 F6600 X143.022 Y148.87
G1 F1350 X140.765 Y151.128 E59.18525
G0 F6600 X140.199 Y151.128
G1 F1350 X142.457 Y148.87 E59.29146
G0 F6600 X141.891 Y148.87
G1 F1350 X139.633 Y151.128 E59.39767
G0 F6600 X139.068 Y151.128
G1 F1350 X141.325 Y148.87 E59.50386
G0 F6600 X140.76 Y148.87
G1 F1350 X138.502 Y151.128 E59.61007
G0 F6600 X137.936 Y151.128
G1 F1350 X140.194 Y148.87 E59.71628
G0 F6600 X139.628 Y148.87
G1 F1350 X137.371 Y151.128 E59.82246
G0 F6600 X136.805 Y151.128
G1 F1350 X139.063 Y148.87 E59.92867
G0 F6600 X138.497 Y148.87
G1 F1350 X136.239 Y151.128 E60.03488
G0 F6600 X136.161 Y150.641
G1 F1350 X137.931 Y148.87 E60.11816
G0 F6600 X137.366 Y148.87
G1 F1350 X136.161 Y150.075 E60.17484
G0 F6600 X136.161 Y149.509
G1 F1350 X136.8 Y148.87 E60.2049
G0 F6600 X136.234 Y148.87
G1 F1350 X136.161 Y148.944 E60.20835
G0 F6600 X135.811 Y148.944
G1 F2400 E59.40835
;MESH:NONMESH
G0 F300 X135.811 Y148.944 Z0.6
G0 F6600 X135.721 Y148.944
G0 X135.425 Y148.135
G0 X135.425 Y147.056
G0 X135.165 Y147.095
G0 X134.353 Y146.759
G0 X134.346 Y139.511
G0 X135.211 Y139.511
;TIME_ELAPSED:115.170498
;LAYER:2
M106 S170
;TYPE:SUPPORT
G1 F2400 E60.20835
G1 F1500 X164.789 Y139.511 E61.19212
G1 X164.789 Y143.131 E61.31252
G1 X135.211 Y143.131 E62.29629
G1 X135.211 Y139.511 E62.41669
G0 F7200 X136 Y139.711
G1 F1500 X136 Y142.931 E62.52379
G0 F7200 X138 Y142.931
